images/guitar4.svg

<svg id="guitar4" xmlns="http://www.w3.org/2000/svg" viewBox="0 0 59.93 84.44"><defs><style>.cls-1{fill:#231f20;}.cls-1,.cls-2{stroke:#231f20;stroke-miterlimit:10;stroke-width:0.5px;}.cls-2{fill:#fff;}</style></defs><path class="cls-1" d="M30.13.28s3.66-.72,6.22,5.23c0,0,10.6,6.3,13.15,10.33,0,0,4,37.65-6.57,60.67l.36,7.68H30.13"/><path class="cls-1" d="M30.13.28s-3.65-.72-6.21,5.23c0,0-10.6,6.3-13.15,10.33,0,0-4,37.65,6.57,60.67L17,84.19H30.13"/><path class="cls-1" d="M10,31.75H8s-8.77,5-7.68,0"/><path class="cls-1" d="M10,31.75H8s-8.77-5-7.68,0"/><path class="cls-1" d="M10,45.41H8s-8.77,5-7.68,0"/><path class="cls-1" d="M10,45.41H8s-8.77-5-7.68,0"/><path class="cls-1" d="M12.21,58.61h-2s-8.77,5-7.67,0"/><path class="cls-1" d="M12.21,58.61h-2s-8.77-5-7.67,0"/><path class="cls-1" d="M49.91,32h2s8.77,5,7.67,0"/><path class="cls-1" d="M49.91,32h2s8.77-5,7.67,0"/><path class="cls-1" d="M49.91,45.64h2s8.77,5,7.67,0"/><path class="cls-1" d="M49.91,45.64h2s8.77-5,7.67,0"/><path class="cls-1" d="M47.72,58.84h2s8.77,5,7.67,0"/><path class="cls-1" d="M47.72,58.84h2s8.77-5,7.67,0"/><polygon class="cls-2" points="17.34 76.51 42.92 76.51 43.29 84.19 16.98 84.19 17.34 76.51"/><path class="cls-2" d="M32.69,66.65h7.5S48,28.36,44.75,20.1l-5.62-.63S35.62,62.26,32.69,66.65Z"/><path class="cls-2" d="M26.51,66.65H19S11.16,28.36,14.45,20.1l5.63-.63S23.59,62.26,26.51,66.65Z"/></svg>

<?xml version="1.0" encoding="UTF-8" standalone="no"?>
<!DOCTYPE svg PUBLIC "-//W3C//DTD SVG 1.1//EN" "http://www.w3.org/Graphics/SVG/1.1/DTD/svg11.dtd">
<svg width="100%" height="100%" viewBox="0 0 90 90" version="1.1" xmlns="http://www.w3.org/2000/svg" xmlns:xlink="http://www.w3.org/1999/xlink" xml:space="preserve" xmlns:serif="http://www.serif.com/" style="fill-rule:evenodd;clip-rule:evenodd;stroke-linejoin:round;stroke-miterlimit:2;">
    <g transform="matrix(1.07223,0,0,1.07223,12.8708,-0.270911)">
        <path d="M30.13,0.28C30.13,0.28 33.79,-0.44 36.35,5.51C36.35,5.51 46.95,11.81 49.5,15.84C49.5,15.84 53.5,53.49 42.93,76.51L43.29,84.19L30.13,84.19" style="fill:rgb(35,31,32);fill-rule:nonzero;"/>
    </g>
    <g transform="matrix(1.07223,0,0,1.07223,12.8708,-0.270911)">
        <path d="M30.13,0.28C30.13,0.28 26.48,-0.44 23.92,5.51C23.92,5.51 13.32,11.81 10.77,15.84C10.77,15.84 6.77,53.49 17.34,76.51L17,84.19L30.13,84.19" style="fill:rgb(35,31,32);fill-rule:nonzero;"/>
    </g>
    <g transform="matrix(1.07223,0,0,1.07223,12.8708,-0.270911)">
        <path d="M10,31.75L8,31.75C8,31.75 -0.77,36.75 0.32,31.75" style="fill:rgb(35,31,32);fill-rule:nonzero;"/>
    </g>
    <g transform="matrix(1.07223,0,0,1.07223,12.8708,-0.270911)">
        <path d="M10,31.75L8,31.75C8,31.75 -0.77,26.75 0.32,31.75" style="fill:rgb(35,31,32);fill-rule:nonzero;"/>
    </g>
    <g transform="matrix(1.07223,0,0,1.07223,12.8708,-0.270911)">
        <path d="M10,45.41L8,45.41C8,45.41 -0.77,50.41 0.32,45.41" style="fill:rgb(35,31,32);fill-rule:nonzero;"/>
    </g>
    <g transform="matrix(1.07223,0,0,1.07223,12.8708,-0.270911)">
        <path d="M10,45.41L8,45.41C8,45.41 -0.77,40.41 0.32,45.41" style="fill:rgb(35,31,32);fill-rule:nonzero;"/>
    </g>
    <g transform="matrix(1.07223,0,0,1.07223,12.8708,-0.270911)">
        <path d="M12.21,58.61L10.21,58.61C10.21,58.61 1.44,63.61 2.54,58.61" style="fill:rgb(35,31,32);fill-rule:nonzero;"/>
    </g>
    <g transform="matrix(1.07223,0,0,1.07223,12.8708,-0.270911)">
        <path d="M12.21,58.61L10.21,58.61C10.21,58.61 1.44,53.61 2.54,58.61" style="fill:rgb(35,31,32);fill-rule:nonzero;"/>
    </g>
    <g transform="matrix(1.07223,0,0,1.07223,12.8708,-0.270911)">
        <path d="M49.91,32L51.91,32C51.91,32 60.68,37 59.58,32" style="fill:rgb(35,31,32);fill-rule:nonzero;"/>
    </g>
    <g transform="matrix(1.07223,0,0,1.07223,12.8708,-0.270911)">
        <path d="M49.91,32L51.91,32C51.91,32 60.68,27 59.58,32" style="fill:rgb(35,31,32);fill-rule:nonzero;"/>
    </g>
    <g transform="matrix(1.07223,0,0,1.07223,12.8708,-0.270911)">
        <path d="M49.91,45.64L51.91,45.64C51.91,45.64 60.68,50.64 59.58,45.64" style="fill:rgb(35,31,32);fill-rule:nonzero;"/>
    </g>
    <g transform="matrix(1.07223,0,0,1.07223,12.8708,-0.270911)">
        <path d="M49.91,45.64L51.91,45.64C51.91,45.64 60.68,40.64 59.58,45.64" style="fill:rgb(35,31,32);fill-rule:nonzero;"/>
    </g>
    <g transform="matrix(1.07223,0,0,1.07223,12.8708,-0.270911)">
        <path d="M47.72,58.84L49.72,58.84C49.72,58.84 58.49,63.84 57.39,58.84" style="fill:rgb(35,31,32);fill-rule:nonzero;"/>
    </g>
    <g transform="matrix(1.07223,0,0,1.07223,12.8708,-0.270911)">
        <path d="M47.72,58.84L49.72,58.84C49.72,58.84 58.49,53.84 57.39,58.84" style="fill:rgb(35,31,32);fill-rule:nonzero;"/>
    </g>
    <g transform="matrix(1.07223,0,0,1.07223,12.8708,-0.270911)">
        <path d="M17.34,76.51L42.92,76.51L43.29,84.19L16.98,84.19L17.34,76.51Z" style="fill:white;fill-rule:nonzero;"/>
    </g>
    <g transform="matrix(1.07223,0,0,1.07223,12.8708,-0.270911)">
        <path d="M32.69,66.65L40.19,66.65C40.19,66.65 48,28.36 44.75,20.1L39.13,19.47C39.13,19.47 35.62,62.26 32.69,66.65Z" style="fill:white;fill-rule:nonzero;"/>
    </g>
    <g transform="matrix(1.07223,0,0,1.07223,12.8708,-0.270911)">
        <path d="M26.51,66.65L19,66.65C19,66.65 11.16,28.36 14.45,20.1L20.08,19.47C20.08,19.47 23.59,62.26 26.51,66.65Z" style="fill:white;fill-rule:nonzero;"/>
    </g>
</svg>
